X: 1662
T: Annika's Butterfly
R: barndance
M: 4/4
K: Dminor
[M:3/4]D>F A/F/D/F/ A/F/D|G>B d/B/G/B/ d/B/G|AA/^c/ eg f/e/f/g/|
[M:3/4]f>g f/c/A/B/ c/B/A/B/|c/B/A/B/ cA F2|
G>B dg b/a/g/a/|b/a/g/a/ bg ec|B>d gg/a/ b/a/g|
g/f/e/f/ ge c2|B>d gg/a/ b/a/g|c>f a/g/f/g/ a/g/f|

